X:1
T:Title
%%score { ( 1 3 4 ) | ( 2 5 ) }
L:1/8
M:3/4
K:Db
V:1 treble nm="Grand Piano"
V:3 treble 
V:4 treble 
V:2 treble 
V:5 treble 
V:1
 z2 z2[Q:1/4=100] d>c | (3z CC z A [Ac]>B | [FA]2 [DF]2 .[A,DF]>G | [DF]3 E [GB]>A |[M:2/4] [FA]4 | %5
[M:1/4] [Fd]>c |[M:3/4] (3z CC z A [Ac]>B | [FA]2 [DF]2 [Fd]>F | [CA]3 G [A,F]>E | %9
[M:2/4][K:bass] [F,D]4 |[M:1/4] z2 |[M:3/4][K:treble] B2- [DB]B [C=A]>c | [DB]2 [DF]2 z2 | %13
 d2- [Fd]d e>f |[M:2/4] e4 |[M:1/4] B>A |[M:3/4] [Af]4 z2 | [A_c]2 z2 z2 | [FA]3 d e>[Gc] | %19
[M:2/4] [Fd]4 |[M:1/4] d>e |[M:3/4] [Fd]2 [Ec]2 B>c | [GB]2 z2 z2 | [CA]4[K:bass][K:treble] z2 | %24
[M:2/4] F4 |[M:1/4] A>d |[M:3/4] [Af]4 z2 | [DA_c]2 [DGB]2 (3d=cB |[M:13/16] D>DD>de3/2[Gc] | %29
[M:2/4] [Fd]4 |] %30
V:2
 z2 z2 F>E | (3A,,A,A, A,F .[A,,E,]>G | (3D,DA, .D,2 .D,>E | (3A,,D,F, A,[K:treble]C .A,>G | %4
[M:2/4][K:bass] (3D,DA, (3F,A,F, |[M:1/4] D, z/ E/ |[M:3/4] (3A,,A,A, A,F .[A,,E,]>G | %7
 (3D,DA, .D,2 .A,>D | (3A,,C,E, A,B, z z/ G,/ |[M:2/4] D,4 |[M:1/4][K:treble] F>F | %11
[M:3/4][K:bass] z z/ D/ z2 F,2 | (3B,,D,F, B,2[K:treble] F>F | z z/[K:treble] F/ B,2 z2 | %14
[M:2/4] [A,CG]4 |[M:1/4] G>G |[M:3/4][K:bass] (3D,F,F, F,F .D,>A | %17
 (3G,G,G,[K:treble] [G,G]2 (3BAG | (3D,F,A,[K:treble] DF [A,CG]>[K:bass][A,,A,] |[M:2/4] [D,A,]4 | %20
[M:1/4][K:treble] F>G |[M:3/4] A,>A, A,2 G>A | D,>D, D,2[K:treble] F>D | %23
 [A,,E,]>A,, A,,>[A,,E,] [A,,A,]>[A,,A,] |[M:2/4] [D,A,D]4 |[M:1/4][K:treble] F>F | %26
[M:3/4][K:bass] [D,D]>D, D,>D, D,>F, | G,2 G,2[K:treble] (3BAG | %28
[M:13/16] A,>A,A,>[A,DF][A,CG]3/2[K:bass][A,,A,] |[M:2/4] [D,A,]4 |] %30
V:3
 x6 | [EG]4 z2 | x6 | x6 |[M:2/4] x4 |[M:1/4] x2 |[M:3/4] [EG]4 z2 | x6 | x6 |[M:2/4][K:bass] x4 | %10
[M:1/4] x2 |[M:3/4][K:treble] D2 z2 z2 | x6 | F2 z2 z2 |[M:2/4] x4 |[M:1/4] x2 | %16
[M:3/4] (3z [A,D][A,D] z d .[DFA]>_c | (3DDD B2 (3d=cB | x6 |[M:2/4] x4 |[M:1/4] x2 |[M:3/4] x6 | %22
 D>D [DFA]2 d>F | z z/[K:bass] E,/ E,>[K:treble][GB] [FA]>[EG] |[M:2/4] x4 |[M:1/4] x2 | %26
[M:3/4] z z/ D/ D>[DFd] [DFA]>[DA_c] | x6 |[M:13/16] [FA]/-[FA]/-[FA]/-[FA]-<[FA] z/ z/ z/ z/ z | %29
[M:2/4] x4 |] %30
V:4
 x6 | z2 .C2 z2 | x6 | x6 |[M:2/4] x4 |[M:1/4] x2 |[M:3/4] z2 .C2 z2 | x6 | x6 | %9
[M:2/4][K:bass] x4 |[M:1/4] x2 |[M:3/4][K:treble] x6 | x6 | x6 |[M:2/4] x4 |[M:1/4] x2 | %16
[M:3/4] z2 .[A,D]2 z2 | x6 | x6 |[M:2/4] x4 |[M:1/4] x2 |[M:3/4] x6 | x6 | %23
 x3/2[K:bass] x2[K:treble] x5/2 |[M:2/4] x4 |[M:1/4] x2 |[M:3/4] x6 | x6 |[M:13/16] x13/2 | %29
[M:2/4] x4 |] %30
V:5
 x6 | x6 | x6 | x3[K:treble] x3 |[M:2/4][K:bass] x4 |[M:1/4] x2 |[M:3/4] x6 | x6 | z2 z2 A,,2 | %9
[M:2/4] x4 |[M:1/4][K:treble] x2 |[M:3/4][K:bass] (3B,,D,F, B,D z z/ E/ | x4[K:treble] x2 | %13
 (3B,,D,F,[K:treble] z F [B,=G]>[DG] |[M:2/4] x4 |[M:1/4] x2 |[M:3/4][K:bass] x6 | %17
 x2[K:treble] x4 | x2[K:treble] x7/2[K:bass] x/ |[M:2/4] x4 |[M:1/4][K:treble] x2 |[M:3/4] x6 | %22
 x4[K:treble] x2 | x6 |[M:2/4] x4 |[M:1/4][K:treble] x2 |[M:3/4][K:bass] x6 | x4[K:treble] x2 | %28
[M:13/16] x11/2[K:bass] x |[M:2/4] x4 |] %30

